src/social-chrome-outline.svg

<?xml version="1.0" encoding="utf-8"?>
<!-- Generated by IcoMoon.io -->
<!DOCTYPE svg PUBLIC "-//W3C//DTD SVG 1.1//EN" "http://www.w3.org/Graphics/SVG/1.1/DTD/svg11.dtd">
<svg version="1.1" xmlns="http://www.w3.org/2000/svg" xmlns:xlink="http://www.w3.org/1999/xlink" width="512" height="512" viewBox="0 0 512 512">
<path fill="#000000" d="M256 32c-123.2 0-224 100.8-224 224s100.8 224 224 224 224-100.8 224-224-100.8-224-224-224zM256 76.799c66.084 0 124.315 35.843 154.558 89.602h-154.558c-43.685 0-79.517 31.358-87.358 71.684l-53.758-92.969c32.474-41.431 84-68.317 141.116-68.317zM323.2 256c0 36.957-30.243 67.2-67.2 67.2s-67.2-30.243-67.2-67.2 30.243-67.2 67.2-67.2 67.2 30.243 67.2 67.2zM76.799 256c0-32.484 8.958-62.716 24.644-89.6l77.272 134.4c15.685 26.885 43.685 44.8 77.285 44.8 10.085 0 20.157-2.241 29.116-5.6l-53.758 92.958c-87.358-11.2-154.559-86.243-154.559-176.958zM256 435.201l77.285-134.401c7.831-13.442 12.314-28 12.314-44.8 0-26.885-12.314-50.399-31.358-67.2h107.517c8.957 21.284 13.443 43.685 13.443 67.2 0 98.557-80.644 179.201-179.201 179.201z"></path>
</svg>

<?xml version="1.0" encoding="utf-8"?>
<!-- Generator: Adobe Illustrator 16.2.1, SVG Export Plug-In . SVG Version: 6.00 Build 0)  -->
<!DOCTYPE svg PUBLIC "-//W3C//DTD SVG 1.1//EN" "http://www.w3.org/Graphics/SVG/1.1/DTD/svg11.dtd">
<svg version="1.1" id="Layer_1" xmlns="http://www.w3.org/2000/svg" xmlns:xlink="http://www.w3.org/1999/xlink" x="0px" y="0px"
	 width="512px" height="512px" viewBox="0 0 512 512" enable-background="new 0 0 512 512" xml:space="preserve">
<g id="Icon">
	<g>
		<path d="M256,32C132.8,32,32,132.8,32,256s100.8,224,224,224s224-100.8,224-224S379.2,32,256,32z M256,76.799
			c66.084,0,124.315,35.843,154.558,89.602H256c-43.685,0-79.517,31.358-87.358,71.684l-53.758-92.969
			C147.358,103.685,198.884,76.799,256,76.799z M323.2,256c0,36.957-30.243,67.2-67.2,67.2s-67.2-30.243-67.2-67.2
			s30.243-67.2,67.2-67.2S323.2,219.043,323.2,256z M76.799,256c0-32.484,8.958-62.716,24.644-89.6L178.715,300.8l0,0
			c15.685,26.885,43.685,44.8,77.285,44.8c10.085,0,20.157-2.241,29.116-5.6l-53.758,92.958C144,421.758,76.799,346.715,76.799,256z
			 M256,435.201L333.285,300.8l0,0c7.831-13.442,12.314-28,12.314-44.8c0-26.885-12.314-50.399-31.358-67.2h107.517
			c8.957,21.284,13.443,43.685,13.443,67.2C435.201,354.557,354.557,435.201,256,435.201z"/>
	</g>
</g>
</svg>
